X: 20281
M: 3/8
L: 1/16
K: D
.e2(e2f2) | g4e2 | c2(a2(c2) | d4) :|
|: (de) |\
f2(fe)f2 | (a2g2f2) | (g2f2e2) | (c2e2A2) |\
(f2fef2) | (a2g2f2) | (c2[a2A2]c2) | d4 "^Fine"yH:|
.B2(Bc)d2 | .c2(c2B2) | A2A2B2 | B4A2 |\
(B2Bcd^d) | (e2efgf) | dcfF^G^A | B3=AF"^D.C."G |]


